assets/images/customization.svg

<svg xmlns="http://www.w3.org/2000/svg" viewBox="0 0 45 50" width="45px" height="50px">
  <g id="Page-1" stroke="none" stroke-width="1" fill="none" fill-rule="evenodd">
    <g id="edit" fill="#E06035" fill-rule="nonzero">
      <path d="M44.5098039,4.41176471 L40.4901961,0.392156863 C40.1960784,0.0980392157 40,0 39.6078431,0 C39.2156863,0 38.9215686,0.0980392157 38.627451,0.392156863 L15.0980392,23.9215686 C15,24.0196078 14.9019608,24.2156863 14.8039216,24.4117647 L12.254902,30.9803922 C11.8627451,31.8627451 12.5490196,32.8431373 13.4313725,32.8431373 C13.627451,32.8431373 13.7254902,32.8431373 13.9215686,32.745098 L20.5882353,30.0980392 C20.7843137,30 20.8823529,29.9019608 20.9803922,29.8039216 L44.5098039,6.2745098 C45,5.78431373 45,4.90196078 44.5098039,4.41176471 Z M19.3137255,27.745098 L15.7843137,29.1176471 L17.1568627,25.5882353 L39.6078431,3.23529412 L41.7647059,5.39215686 L19.3137255,27.745098 Z" id="Shape"></path>
      <path d="M34.0196078,23.3333333 C32.8431373,23.3333333 31.8627451,24.3137255 31.8627451,25.4901961 L31.8627451,45.7843137 L4.21568627,45.7843137 L4.21568627,7.74509804 L25.3921569,7.74509804 C26.5686275,7.74509804 27.5490196,6.8627451 27.5490196,5.68627451 C27.5490196,4.50980392 26.5686275,3.52941176 25.3921569,3.52941176 L2.05882353,3.52941176 C0.882352941,3.52941176 0,4.50980392 0,5.68627451 L0,47.8431373 C0,49.0196078 0.882352941,50 2.05882353,50 L34.0196078,50 C35.1960784,50 36.0784314,49.0196078 36.0784314,47.8431373 L36.0784314,25.4901961 C36.0784314,24.3137255 35.1960784,23.3333333 34.0196078,23.3333333 Z" id="Path"></path>
    </g>
  </g>
</svg>

<svg xmlns="http://www.w3.org/2000/svg" width="45" height="50"><g fill="#E06035" fill-rule="nonzero"><path d="M44.51 4.412 40.49.392C40.196.098 40 0 39.608 0s-.686.098-.98.392l-23.53 23.53c-.098.098-.196.294-.294.49l-2.55 6.568c-.391.883.295 1.863 1.177 1.863.196 0 .294 0 .49-.098l6.667-2.647c.196-.098.294-.196.392-.294l23.53-23.53c.49-.49.49-1.372 0-1.862ZM19.314 27.745l-3.53 1.373 1.373-3.53 22.45-22.353 2.158 2.157-22.451 22.353Z"/><path d="M34.02 23.333c-1.177 0-2.157.98-2.157 2.157v20.294H4.216V7.745h21.176c1.177 0 2.157-.882 2.157-2.059 0-1.176-.98-2.157-2.157-2.157H2.06C.882 3.53 0 4.51 0 5.686v42.157C0 49.02.882 50 2.059 50h31.96c1.177 0 2.06-.98 2.06-2.157V25.49c0-1.176-.883-2.157-2.06-2.157Z"/></g></svg>
